shader_type canvas_item;

uniform vec4 outline_color : source_color = vec4(0.0, 0.0, 0.0, 1.0);
uniform bool corner_pixel = false;

void fragment() {
	vec4 base = texture(TEXTURE, UV);
	vec2 safe_uv = clamp(UV, vec2(0.0), vec2(1.0));

	if (base.a > 0.0) {
		COLOR = base;
	} else {
		vec2 image_pixel_size = TEXTURE_PIXEL_SIZE;
		bool valid_side =
		texture(TEXTURE, safe_uv + vec2(-image_pixel_size.x, 0)).a > 0.0 ||
		texture(TEXTURE, safe_uv + vec2(image_pixel_size.x, 0)).a > 0.0 ||
		texture(TEXTURE, safe_uv + vec2(0, -image_pixel_size.y)).a > 0.0 ||
		texture(TEXTURE, safe_uv + vec2(0, image_pixel_size.y)).a > 0.0;
		bool valid_corner =
		texture(TEXTURE, safe_uv + vec2(-image_pixel_size.x, -image_pixel_size.y)).a > 0.0 ||
		texture(TEXTURE, safe_uv + vec2(image_pixel_size.x, -image_pixel_size.y)).a > 0.0 ||
		texture(TEXTURE, safe_uv + vec2(-image_pixel_size.x, image_pixel_size.y)).a > 0.0 ||
		texture(TEXTURE, safe_uv + vec2(image_pixel_size.x, image_pixel_size.y)).a > 0.0;

		if (valid_side || corner_pixel && valid_corner){
			COLOR = outline_color;
		}

	}
}

//void light() {
//	// Called for every pixel for every light affecting the CanvasItem.
//	// Uncomment to replace the default light processing function with this one.
//}
